src/22/panel/screencloud-idle.svg

<svg xmlns="http://www.w3.org/2000/svg" width="22" height="22" version="1.1">
 <defs>
  <style id="current-color-scheme" type="text/css">
   .ColorScheme-Text { color:#dfdfdf; } .ColorScheme-Highlight { color:#4285f4; }
  </style>
 </defs>
 <path style="fill:currentColor" class="ColorScheme-Text" d="M 8.5 5 A 5.5 5.5 0 0 0 3 10.5 A 5.5 5.5 0 0 0 3.046875 11.158203 A 3 3 0 0 0 1 14 A 3 3 0 0 0 4 17 L 18 17 A 3 3 0 0 0 21 14 A 3 3 0 0 0 18.992188 11.171875 A 4 4 0 0 0 19 11 A 4 4 0 0 0 15 7 A 4 4 0 0 0 13.097656 7.4863281 A 5.5 5.5 0 0 0 8.5 5 z M 5.984375 7 C 6.537375 7 7 7.448 7 8 C 7 8.552 6.537375 9 5.984375 9 C 5.431375 9 5 8.552 5 8 C 5 7.448 5.432275 7 5.984375 7 z M 11 8 C 13.209139 8 15 9.790861 15 12 C 15 14.209139 13.209139 16 11 16 C 8.790861 16 7 14.209139 7 12 C 7 9.790861 8.790861 8 11 8 z M 11 10 C 9.8954305 10 9 10.895431 9 12 C 9 13.104569 9.8954305 14 11 14 C 12.104569 14 13 13.104569 13 12 C 13 10.895431 12.104569 10 11 10 z"/>
</svg>

<svg xmlns="http://www.w3.org/2000/svg" width="22" height="22"><defs><style id="current-color-scheme" type="text/css"></style></defs><path d="M8.5 5A5.5 5.5 0 0 0 3 10.5a5.5 5.5 0 0 0 .047.658A3 3 0 0 0 1 14a3 3 0 0 0 3 3h14a3 3 0 0 0 3-3 3 3 0 0 0-2.008-2.828A4 4 0 0 0 19 11a4 4 0 0 0-4-4 4 4 0 0 0-1.902.486A5.5 5.5 0 0 0 8.5 5zM5.984 7C6.537 7 7 7.448 7 8s-.463 1-1.016 1A.987.987 0 0 1 5 8c0-.552.432-1 .984-1zM11 8a4 4 0 1 1 0 8 4 4 0 0 1 0-8zm0 2a2 2 0 1 0 0 4 2 2 0 0 0 0-4z" fill="currentColor" color="#bebebe"/></svg>
